svg/fluentui-system-icons/ic_fluent_folder_link_28_filled.svg

<svg width="28" height="28" viewBox="0 0 28 28" fill="none" xmlns="http://www.w3.org/2000/svg">
<path d="M22.25 18.5C24.3211 18.5 26 20.1789 26 22.25C26 24.2543 24.4276 25.8913 22.4523 25.9948L22.2534 26L21.2534 26.0046C20.8392 26.0065 20.5019 25.6722 20.5 25.258C20.4983 24.8783 20.779 24.5633 21.1448 24.5119L21.2466 24.5046L22.25 24.5C23.4926 24.5 24.5 23.4926 24.5 22.25C24.5 21.0591 23.5748 20.0844 22.404 20.0052L22.25 20H21.25C20.8358 20 20.5 19.6642 20.5 19.25C20.5 18.8703 20.7822 18.5565 21.1482 18.5068L21.25 18.5H22.25ZM17.75 18.5C18.1642 18.5 18.5 18.8358 18.5 19.25C18.5 19.6297 18.2178 19.9435 17.8518 19.9932L17.75 20H16.75C15.5074 20 14.5 21.0074 14.5 22.25C14.5 23.4409 15.4252 24.4156 16.596 24.4948L16.75 24.5H17.75C18.1642 24.5 18.5 24.8358 18.5 25.25C18.5 25.6297 18.2178 25.9435 17.8518 25.9932L17.75 26H16.75C14.6789 26 13 24.3211 13 22.25C13 20.2457 14.5724 18.6087 16.5508 18.5052L16.75 18.5H17.75ZM23.75 6.5C24.8867 6.5 25.8266 7.34297 25.9785 8.43788L25.9948 8.59595L26 8.75L26.0008 19.3352C25.1317 18.2184 23.7748 17.5 22.25 17.5H16.75C14.1266 17.5 12 19.6266 12 22.25C12 22.8684 12.1182 23.4593 12.3332 24.0012L4.25 24C3.05914 24 2.08436 23.0748 2.00519 21.904L2 21.75V10.499L10.2069 10.5L10.4034 10.4914C10.794 10.4572 11.169 10.3214 11.4909 10.0977L11.6473 9.9785L15.821 6.5H23.75ZM22.25 21.5C22.6642 21.5 23 21.8358 23 22.25C23 22.6297 22.7178 22.9435 22.3518 22.9932L22.25 23H16.75C16.3358 23 16 22.6642 16 22.25C16 21.8703 16.2822 21.5565 16.6482 21.5068L16.75 21.5H22.25ZM10.2069 4C10.6675 4 11.1153 4.14129 11.4909 4.40235L11.6473 4.5215L13.75 6.273L10.6871 8.82617L10.6022 8.88738C10.5136 8.94232 10.4145 8.9782 10.3113 8.9927L10.2069 9L2 8.999V6.25C2 5.05914 2.92516 4.08436 4.09595 4.00519L4.25 4H10.2069Z" fill="#212121"/>
</svg>

<svg xmlns="http://www.w3.org/2000/svg" width="28" height="28"><path d="M22.25 18.5a3.75 3.75 0 0 1 .202 7.495l-.199.005-1 .005a.75.75 0 0 1-.108-1.493l.102-.007 1.003-.005a2.25 2.25 0 0 0 .154-4.495L22.25 20h-1a.75.75 0 0 1-.102-1.493l.102-.007h1Zm-4.5 0a.75.75 0 0 1 .102 1.493L17.75 20h-1a2.25 2.25 0 0 0-.154 4.495l.154.005h1a.75.75 0 0 1 .102 1.493L17.75 26h-1a3.75 3.75 0 0 1-.2-7.495l.2-.005h1Zm6-12a2.25 2.25 0 0 1 2.229 1.938l.016.158.005.154v10.585a4.742 4.742 0 0 0-3.75-1.835h-5.5a4.75 4.75 0 0 0-4.417 6.501L4.25 24a2.25 2.25 0 0 1-2.245-2.096L2 21.75V10.499l8.207.001.196-.009a2.25 2.25 0 0 0 1.088-.393l.156-.12L15.821 6.5h7.929Zm-1.5 15a.75.75 0 0 1 .102 1.493L22.25 23h-5.5a.75.75 0 0 1-.102-1.493l.102-.007h5.5ZM10.207 4c.46 0 .908.141 1.284.402l.156.12 2.103 1.751-3.063 2.553-.085.061a.75.75 0 0 1-.29.106L10.206 9 2 8.999V6.25a2.25 2.25 0 0 1 2.096-2.245L4.25 4h5.957Z"/></svg>
